docs/img/filter/24/basic/plus.svg

<svg width="24" height="24" fill="none" xmlns="http://www.w3.org/2000/svg"><path fill-rule="evenodd" clip-rule="evenodd" d="M13 11h9v2h-9v9h-2v-9H2v-2h9V2h2v9z" fill="#000"/></svg>

<svg width="24" height="24" viewBox="0 0 24 24" fill="none" xmlns="http://www.w3.org/2000/svg">
<g id="24 / basic / plus">
<path id="icon" fill-rule="evenodd" clip-rule="evenodd" d="M13 11H22V13H13V22H11V13H2V11H11V2H13V11Z" fill="black"/>
</g>
</svg>
